X: 1
T:Midnight in Moscow
C:anon.
O:Russia
Z:Transcribed by Frank Nordberg - http://www.musicaviva.com
M:C
L:1/4
Q:1/4=144
K:Dm
"Dm"DFAF|"Gm"G2FE|"A7"A2G2|"Dm"D3 z|
"F"FAcc|"Gm"d2"C7"cB|"F"A4|"E7"=B2^c2||
|:"Dm"edA2|"Dm"z FED|"Gm"AGB2-|"Gm"B z cB|"Dm"A2GF|
"Em7"A2 "A7"G2|[1"Dm"D4|"E7"=B2^c2:|[2"Dm"D4-|"Dm"D z z2|]
